svgs/regular/file-invoice-dollar.svg

<svg xmlns="http://www.w3.org/2000/svg" viewBox="0 0 384 512"><!--! Font Awesome Pro 6.0.0-alpha3 by @fontawesome - https://fontawesome.com License - https://fontawesome.com/license (Commercial License) --><path d="M365.3 93.38l-74.63-74.64C278.6 6.742 262.3 0 245.4 0H64C28.65 0 0 28.65 0 64l.0065 384c0 35.34 28.65 64 64 64H320c35.2 0 64-28.8 64-64V138.6C384 121.7 377.3 105.4 365.3 93.38zM336 448c0 8.836-7.164 16-16 16H64.02c-8.838 0-16-7.164-16-16L48 64.13c0-8.836 7.164-16 16-16h160L224 128c0 17.67 14.33 32 32 32h79.1V448zM96 128h80C184.8 128 192 120.8 192 112S184.8 96 176 96H96C87.16 96 80 103.2 80 112S87.16 128 96 128zM192 176C192 167.2 184.8 160 176 160H96C87.16 160 80 167.2 80 176S87.16 192 96 192h80C184.8 192 192 184.8 192 176zM197.5 308.8L191.1 307.2C168.3 300.2 168.8 296.1 169.6 292.5c1.375-7.812 16.59-9.719 30.27-7.625c5.594 .8438 11.73 2.812 17.59 4.844c10.39 3.594 21.83-1.938 25.45-12.34c3.625-10.44-1.891-21.84-12.33-25.47c-7.219-2.484-13.11-4.078-18.56-5.273V240c0-11.03-8.953-20-20-20s-20 8.969-20 20v5.992C149.6 250.8 133.8 264.8 130.2 285.7c-7.406 42.84 33.19 54.75 50.52 59.84l5.812 1.688c29.28 8.375 28.8 11.19 27.92 16.28c-1.375 7.812-16.59 9.75-30.31 7.625c-6.938-1.031-15.81-4.219-23.66-7.031l-4.469-1.625c-10.41-3.594-21.83 1.812-25.52 12.22c-3.672 10.41 1.781 21.84 12.2 25.53l4.266 1.5c7.758 2.789 16.38 5.59 25.06 7.512V416c0 11.03 8.953 20 20 20s20-8.969 20-20v-6.254c22.36-4.793 38.21-18.53 41.83-39.43C261.3 327 219.8 315.1 197.5 308.8z"/></svg>

<svg xmlns="http://www.w3.org/2000/svg" viewBox="0 0 384 512"><!-- Font Awesome Pro 6.0.0-alpha2 by @fontawesome - https://fontawesome.com License - https://fontawesome.com/license (Commercial License) --><path d="M365.256 93.383L290.627 18.746C278.625 6.742 262.348 0 245.373 0H64C28.654 0 0 28.652 0 64L0.02 448C0.02 483.344 28.674 512 64.02 512H320C355.199 512 384 483.199 384 448V138.641C384 121.664 377.258 105.383 365.256 93.383ZM336.002 448C336.002 456.836 328.838 464 320.002 464H64.018C55.18 464 48.018 456.836 48.018 448L48 64.125C48 55.289 55.164 48.125 64 48.125H224.008V128C224.008 145.672 238.334 160 256.008 160H336.002V448ZM96 128H176C184.844 128 192 120.844 192 112S184.844 96 176 96H96C87.156 96 80 103.156 80 112S87.156 128 96 128ZM192 176C192 167.156 184.844 160 176 160H96C87.156 160 80 167.156 80 176S87.156 192 96 192H176C184.844 192 192 184.844 192 176ZM197.502 308.75L191.955 307.156C168.252 300.188 168.814 296.969 169.58 292.5C170.955 284.688 186.174 282.781 199.846 284.875C205.439 285.719 211.58 287.688 217.439 289.719C227.83 293.313 239.268 287.781 242.893 277.375C246.518 266.938 241.002 255.531 230.564 251.906C223.346 249.422 217.455 247.828 212.002 246.633V240C212.002 228.969 203.049 220 192.002 220S172.002 228.969 172.002 240V245.992C149.58 250.762 133.811 264.75 130.174 285.688C122.768 328.531 163.361 340.438 180.689 345.531L186.502 347.219C215.783 355.594 215.299 358.406 214.424 363.5C213.049 371.313 197.83 373.25 184.111 371.125C177.174 370.094 168.299 366.906 160.455 364.094L155.986 362.469C145.58 358.875 134.158 364.281 130.471 374.688C126.799 385.094 132.252 396.531 142.674 400.219L146.939 401.719C154.697 404.508 163.32 407.309 172.002 409.23V416C172.002 427.031 180.955 436 192.002 436S212.002 427.031 212.002 416V409.746C234.363 404.953 250.207 391.219 253.83 370.312C261.314 327.031 219.799 315.125 197.502 308.75Z"/></svg>
